X:1
T: Miss Graham
C:
R:Strathspey
Q: 128
K:G
M:4/4
L:1/16
|:B2|G4 g2B2 d3e d2B2|G4 g2fg a2A2 A2B2|G4 g2B2 d3e d2c2|c2A2 dcBA B2G2 G2B2|
G4 g2B2 d3e d2B2|G4 g2fg a2A2 A2B2|G4 g2B2 d3e d2c2|c2A2 dcBA B2G2 G2c2|
B2G2 d2G2 g2d2 e2c2|B2G2 g2fg a2A2 A2c2|B2G2 d2B2 g3d e3c|c3g dcBA B2G2 G2c2|
B3G d3B g2d2 e2c2|BG3 g2fg a2A2 A2c2|B2G2 d2B2 e2de g2d2|B2g2 dcBA BG3 G2:|
